icons/op-quote-24.svg

<svg width="24" height="24" viewBox="0 0 24 24" fill="none" xmlns="http://www.w3.org/2000/svg">
<path d="M9 20V15.9062C6.15625 15.4375 4 12.9688 4 10C4 6.6875 6.6875 4 10 4H14C17.3125 4 20 6.6875 20 10C20 13.1875 17.5 15.8125 14.3438 16L9 20ZM10 6C7.78125 6 6 7.78125 6 10C6 12.2188 7.78125 14 10 14H11V16L13.6562 14H14C16.2188 14 18 12.2188 18 10C18 7.78125 16.2188 6 14 6H10Z" fill="black"/>
</svg>

<svg xmlns="http://www.w3.org/2000/svg" width="24" height="24" viewBox="0 0 24 24"><path d="M9 20v-4.094A5.981 5.981 0 0 1 4 10c0-3.312 2.688-6 6-6h4c3.312 0 6 2.688 6 6 0 3.188-2.5 5.812-5.656 6L9 20Zm1-14c-2.219 0-4 1.781-4 4 0 2.219 1.781 4 4 4h1v2l2.656-2H14c2.219 0 4-1.781 4-4 0-2.219-1.781-4-4-4h-4Z"/></svg>
